packages/foundations/assets/icons/functional/images/business & payment/shopping_bag_24.svg

<svg width="24" height="24" viewBox="0 0 24 24" fill="none" xmlns="http://www.w3.org/2000/svg">
<g clip-path="url(#clip0_184_100)">
<path fill-rule="evenodd" clip-rule="evenodd" d="M11.9995 2.5C14.1875 2.5 15.9685 4.063 15.9685 6.5H17.9995C18.4995 6.5 18.9375 6.906 18.9685 7.438L20.0305 20.406C20.0625 21 19.5935 21.5 19.0305 21.5H4.9695C4.4065 21.5 3.9375 21 3.9695 20.406L4.9995 7.438C5.01412 7.18325 5.12604 6.94384 5.31216 6.76927C5.49827 6.5947 5.74434 6.4983 5.9995 6.5H7.9995C7.9995 4.062 9.8125 2.5 11.9995 2.5ZM17.0625 8.5H6.9045L6.0615 19.5H17.9365L17.0625 8.5ZM11.9685 4.5C10.8435 4.5 9.9995 5.344 9.9995 6.5H13.9685C13.9685 5.25 13.0305 4.5 11.9685 4.5ZM13.9685 11.5C13.9685 12.688 13.0935 13.5 11.9995 13.5C10.9685 13.5 9.9685 12.75 9.9685 11.5C9.9685 10.937 9.4995 10.5 8.9995 10.5C8.4365 10.5 7.9995 10.938 7.9995 11.5C7.9995 13.719 9.7805 15.5 11.9685 15.5C14.1875 15.5 15.9685 13.719 15.9685 11.5C15.9685 10.937 15.4995 10.5 14.9685 10.5C14.4055 10.5 13.9685 10.938 13.9685 11.5Z" fill="#1A1C1F"/>
</g>
<defs>
<clipPath id="clip0_184_100">
<rect width="24" height="24" fill="white"/>
</clipPath>
</defs>
</svg>

<svg xmlns="http://www.w3.org/2000/svg" width="24" height="24" fill="none"><g clip-path="url(#a)"><path fill="#1A1C1F" fill-rule="evenodd" d="M12 2.5c2.188 0 3.969 1.563 3.969 4h2.03c.5 0 .939.406.97.938l1.061 12.968c.032.594-.437 1.094-1 1.094H4.97c-.563 0-1.032-.5-1-1.094L5 7.438A.995.995 0 0 1 6 6.5h2c0-2.438 1.813-4 4-4m5.063 6H6.905l-.844 11h11.875zm-5.094-4c-1.125 0-1.97.844-1.97 2h3.97c0-1.25-.938-2-2-2m2 7c0 1.188-.875 2-1.97 2-1.03 0-2.03-.75-2.03-2 0-.563-.47-1-.97-1-.562 0-1 .438-1 1 0 2.219 1.782 4 3.97 4 2.219 0 4-1.781 4-4 0-.563-.47-1-1-1-.563 0-1 .438-1 1" clip-rule="evenodd"/></g><defs><clipPath id="a"><path fill="#fff" d="M0 0h24v24H0z"/></clipPath></defs></svg>
